X:483
T:Miss Nuttall's Farewell
C:Colin Hume, 1992
L:1/4
M:2/2
S:Colin Hume's website,  colinhume.com  - chords can also be printed below the stave.
Q:1/2=110
N:For the dance by Geoff Todd.
%%MIDI ratio 3 1
K:G
P:A
|: B/c/ | "G"de/d/ cB | "Am"cA- AA/B/ | "D7"cd/c/ BA | "G"BG- GB |\
"D7"AD- Dc | "Em"BG- Gc/d/ | "C"ec "Am"c>B | "D7"A3 :|
P:B
|: B/c/ | "G"de/f/ gf | "C"ec- ce | "G"dc/B/ "Am"cd | "D"A2- "D7"AG/A/ |\
"G"BA/B/ "Am"cB/c/ | "Bm"dB "Em"Gd | "C"e>d "D7"c/B/A | "G"G3 :|

